X: 10
M: 4/4
L: 1/8
K: A
cd \
|: "A"edce "B/E7"cBAc | "C#/A"AGAB "F#m"c2A2 \
| "Bm"FBB2 "F#/Bm"cBB2 | "Bm"F^EFG "G#/E7"A2GF |
   "A"edce "B/E7"cBAc | "C#/A"AGAB "F#m"c2A2 \
| "Bm"FBB2 "D#/B7"cBB2 |1 "E7"GEFG "A"A2cd :|2 "E7"GEFG "A"A2AF ||
|: "A"EAA2 "E/A"cAA2 | "A"E^DEF "F#m"A2E2 \
| "Bm"FBB2 "F#/Bm"cBB2 | "Bm"F^EFG "G#/E7"A2GF |
   "A"EAA2 "E/A"cAA2 | "A"E^DEF "F#m"A2E2 \
| "Bm"FBB2 "D#/B7"cBB2 |1 "E7"GEFG "A"A2AG :|2 "E7"GEFG "A"A2A2 |]
his wife Carolyn, whilst I wrote the tune for my wife Caroline. Both ladies have the same initials,


